X: 9562
T: Dave's
R: reel
M: 4/4
K: Aminor
|:ABcd e2a2|e2g2 e2a2|ABcd egfe|defd ecA2|
ABcd e2a2|e2g2 e2a2|c'age dfed|cAG2 A4:|
|:cBAc BGAB|cBcd ecde|fagf ecde|fedcB2G2|
FEFG AcBA|G^ FGA BGAB|c2e2 dfed|cAG2 A4:|

